X: 350
U:~=!turn!
M:C
L:1/8
K:G
g | d<B~B>A G2 (D<G) | E>A c/B/A/G/ F<A A>g | d<B~B>A G2 D>G | E>G F/G/A (B<G)G :|
(B,/C/D) D>G E>GD>G | D>d c/B/A/G/ F<AA>C | B,/C/D G>D (E/F/G) c>e | d>Bc>A B<GG |]


